dist/icons/svgs/timer-outline.svg

<svg xmlns="http://www.w3.org/2000/svg" width="24" height="24" fill="currentcolor" class="icon-timer-outline" viewBox="0 0 24 24">
  <path d="M12 2C17.5078 2 22 6.49219 22 12C22 17.5469 17.5078 22 12 22C6.45312 22 2 17.5469 2 12C2 9.92969 2.625 8.01562 3.71875 6.41406C3.99219 5.98438 4.57812 5.86719 5.00781 6.14062C5.4375 6.45312 5.55469 7.03906 5.24219 7.46875C4.38281 8.75781 3.875 10.3203 3.875 12C3.875 16.4922 7.50781 20.125 12 20.125C16.4531 20.125 20.125 16.4922 20.125 12C20.125 7.85938 16.9609 4.42188 12.9375 3.95312V6.0625C12.9375 6.60938 12.5078 7 12 7C11.4531 7 11.0625 6.60938 11.0625 6.0625V2.9375C11.0625 2.42969 11.4531 2 12 2ZM9.53906 8.21094L12.6641 11.3359C13.0156 11.7266 13.0156 12.3125 12.6641 12.6641C12.2734 13.0547 11.6875 13.0547 11.3359 12.6641L8.21094 9.53906C7.82031 9.1875 7.82031 8.60156 8.21094 8.21094C8.5625 7.85938 9.14844 7.85938 9.53906 8.21094Z"/>
</svg>

<svg xmlns="http://www.w3.org/2000/svg" width="24" height="24" fill="currentColor" class="icon-timer-outline" viewBox="0 0 24 24">
  <path d="M12 2c5.508 0 10 4.492 10 10 0 5.547-4.492 10-10 10A9.97 9.97 0 0 1 2 12c0-2.07.625-3.984 1.719-5.586a.94.94 0 0 1 1.289-.273c.43.312.547.898.234 1.328A8.15 8.15 0 0 0 3.875 12 8.12 8.12 0 0 0 12 20.125c4.453 0 8.125-3.633 8.125-8.125 0-4.14-3.164-7.578-7.187-8.047v2.11c0 .546-.43.937-.938.937-.547 0-.937-.39-.937-.937V2.938c0-.508.39-.938.937-.938M9.54 8.21l3.124 3.126c.352.39.352.976 0 1.328-.39.39-.976.39-1.328 0L8.21 9.54c-.39-.351-.39-.937 0-1.328.351-.352.937-.352 1.328 0"/>
</svg>
